fridge-industrial-off.svg

<svg fill="currentColor" viewBox="0 0 24 24"><path d="M19 15.8 5.7 2.5c.35-.31.8-.5 1.3-.5h10a2 2 0 0 1 2 2zm3.11 5.66-1.27 1.27-2.38-2.38c-.36.4-.88.65-1.46.65v1h-2v-1H9v1H7v-1a2 2 0 0 1-2-2V6.89L1.11 3l1.28-1.27zM10 11.89 8.11 10H8v5h2z"/></svg>

<svg  viewBox="0 0 24 24" fill="currentColor"><path  d="M19 15.8L5.7 2.5C6.05 2.19 6.5 2 7 2H17C18.11 2 19 2.9 19 4V15.8M22.11 21.46L20.84 22.73L18.46 20.35C18.1 20.75 17.58 21 17 21V22H15V21H9V22H7V21C5.9 21 5 20.11 5 19V6.89L1.11 3L2.39 1.73L22.11 21.46M10 11.89L8.11 10H8V15H10V11.89Z"/></svg>
